!!!COM: Bach, Johann Sebastian
!!!OTA: Das wohltemperirte Clavier
!!!OPR: Das wohltemperierte Klavier
!!!OTL: Fuga 8, Vol. 2
!!!XEN: The Well-Tempered Clavier, Volume 2, Fugue 8.
!!!ONB: D-sharp minor, 4-part
!!!SCT: BWV 877b
!!!YEC: Copyright 1994, David Huron
!!!YEM: Rights to all derivative electronic formats reserved.
!!!RNB: The texture increases to five voices in the final two measures.
**kern	**kern	**kern	**kern
*staff2	*staff2	*staff1	*staff1
*clefF4	*clefF4	*clefG2	*clefG2
*k[f#c#g#d#a#e#]	*k[f#c#g#d#a#e#]	*k[f#c#g#d#a#e#]	*k[f#c#g#d#a#e#]
*M4/4	*M4/4	*M4/4	*M4/4
*d#:	*d#:	*d#:	*d#:
*MM48	*MM48	*MM48	*MM48
=1	=1	=1	=1
1r	1r	8r	1r
.	.	8d#	.
.	.	8d#	.
.	.	8d#	.
.	.	8c##	.
.	.	8d#	.
.	.	[4e#	.
=2	=2	=2	=2
1r	1r	8e#]	1r
.	.	8d#	.
.	.	4.g#	.
.	.	16f#	.
.	.	16e#	.
.	.	8a#	.
.	.	8g#	.
=3	=3	=3	=3
1r	8r	8f#	1r
.	8A#	8e#	.
.	8A#	8d#	.
.	8A#	16c#	.
.	.	16d#	.
.	8G##	4.e#	.
.	8A#	.	.
.	[4B#	.	.
.	.	16d#	.
.	.	16e#	.
=4	=4	=4	=4
1r	8B#]	4.f#	1r
.	8A#	.	.
.	[4d#	.	.
.	.	16e#	.
.	.	16f##	.
.	8d#]	4.g#	.
.	16c#	.	.
.	16B#	.	.
.	8e#	.	.
.	8d#	16f##	.
.	.	16g##	.
=5	=5	=5	=5
1r	8c#	8a#	1r
.	8B#	8b#	.
.	8A#	[4cc#	.
.	8a#	.	.
.	4.d#	8cc#]	.
.	.	8f##	.
.	.	8g#	.
.	8c#	8a#	.
=6	=6	=6	=6
1r	4Bn	8d#	1r
.	.	4g#	.
.	4A#	.	.
.	.	8f##	.
.	8G#	4.b	.
.	8g#	.	.
.	4c##	.	.
.	.	16a#	.
.	.	16g#	.
=7	=7	=7	=7
8r	8d#	8f#	1r
8D#	8E#	8g#	.
8D#	8F#	8a#	.
8D#	8G#	8b	.
8C##	4.A#	16e#	.
.	.	16f#	.
8D#	.	16e#	.
.	.	16d#	.
[4E#	.	16c##	.
.	.	16d#	.
.	16G#	16e#	.
.	16A#	16f#	.
=8	=8	=8	=8
8E#]	4.B	16g#	1r
.	.	16a#	.
8D#	.	16g#	.
.	.	16f#	.
[4G#	.	[4e#	.
.	16A#	.	.
.	16B#	.	.
8G#]	4.c#	8e#]	.
16F#	.	16f#	.
16E#	.	16g#	.
8A#	.	8f#	.
8G#	16B#	8e#	.
.	16c##	.	.
=9	=9	=9	=9
8F#	8d#	8d#	8r
8E#	8G#	8c##	8a#
8D#	16F#	16d#	8a#
.	16G#	16e#	.
16C#	16A#	8f#	8a#
16D#	16B#	.	.
4.E#	8c#	4.e#	8g##
.	16B#	.	8a#
.	16A#	.	.
.	[4G##	.	[4b#
16D#	.	16f#	.
16E#	.	16e#	.
=10	=10	=10	=10
4.F#	8G##]	8d#	8b#]
.	16A#	8c#	8a#
.	16G##	.	.
.	8A#	8r	[4dd#
16E#	8r	8cc#	.
16F##	.	.	.
4.G#	8r	8b#	8dd#]
.	8d#	8a#	16cc#
.	.	.	16b#
.	8B#	16g#	8ee#
.	.	16a#	.
16F##	8e#	[8b#	8dd#
16G##	.	.	.
=11	=11	=11	=11
8A#	4e#	8b#]	[4cc#
8B#	.	16a#	.
.	.	16g##	.
[4c#	4r	8a#	8cc#]
.	.	8g#	16dd#
.	.	.	16een
8c#]	8r	8f##	8a#
8F##	8c#	8a#	4dd#
8G#	8Bn	8e#	.
8A#	8c#	16f##	[8cc#
.	.	16g#	.
=12	=12	=12	=12
8D#	8F##	8a#	8cc#]
4G#	4en	8g#	8b
.	.	4r	[4a#
8F##	16d#	.	.
.	16c##	.	.
4.B	4.d#	2r	8a#]
.	.	.	8g#
.	.	.	[4gg#
16A#	8b	.	.
16G#	.	.	.
=13	=13	=13	=13
8d#	8a#	1r	8gg#]
8c#	8d#	.	4ff#
4B	[4g#	.	.
.	.	.	16ee#
.	.	.	16dd#
4.A#	8g#]	.	8cc##
.	8c##	.	8ee#
.	8d#	.	8ff#
8G#	8e#	.	8cc##
=14	=14	=14	=14
4F#	8A#	1r	16dd#
.	.	.	16cc#
.	4d#	.	16b
.	.	.	16a#
4E#	.	.	8g#
*	*	*	*strophe
*	*	*	*^
*	*	*	*S/sic	*S/ossia
.	8c##	.	16bxx	8a#xx
.	.	.	16a#xx	.
*	*	*	*S/fin	*S/fin
*	*	*	*v	*v
*	*	*	*S-
8D#	4.f#	.	8b
8C#	.	.	8a#
8BB	.	.	[4g#
8B	16e#	.	.
.	16d#	.	.
=15	=15	=15	=15
8A#	8c##	1r	8g#]
8AA#	4d#	.	8f#
8AA#	.	.	8e#
8AA#	[8c#	.	8en
8FF##	16c#]	.	[4d#
.	16B	.	.
8GG#	16A#	.	.
.	16G#	.	.
[4AA#	16F##	.	8d#]
.	16G#	.	.
.	16A#	.	16c#
.	16B	.	16d#
=16	=16	=16	=16
8AA#]	16c#	1r	4.en
.	16d#	.	.
8GG#	16c#	.	.
.	16B	.	.
[4C#	16A#	.	.
.	16G#	.	.
.	16F#	.	16d#
.	16E#	.	16e#
8C#]	4D#	.	4.f#
16BB	.	.	.
16AA#	.	.	.
8D#	8r	.	.
8C#	8A#	.	16e#
.	.	.	16f##
=17	=17	=17	=17
8.BB	16d#	8r	8g#
.	16en	.	.
.	16d#	8g#	8r
16AA#	16c#	.	.
16GG#	16B	8g#	4r
16AA#	16c#	.	.
16BB	[8d#	8g#	.
16GG#	.	.	.
8C#	16d#]	8e#	2r
.	16c#	.	.
8D#	16B	8f#	.
.	16A#	.	.
8E#	16G#	[4g#	.
.	16A#	.	.
8C#	16B	.	.
.	16G#	.	.
=18	=18	=18	=18
4.F#	8A#	8g#]	1r
.	8d#	8f#	.
.	8G#	[4b	.
16E#	8g#	.	.
16D#	.	.	.
16E#	[2c#	8b]	.
16G#	.	.	.
16C#	.	16a#	.
16D#	.	16g#	.
16E#	.	8cc#	.
16F#	.	.	.
16G#	.	8b	.
16E#	.	.	.
=19	=19	=19	=19
8F#	8c#]	8a#	1r
16E#	8c#	16g#	.
16D#	.	16f#	.
16C#	8c#	16e#	.
16D#	.	16f##	.
16En	8c#	[8g#	.
16C#	.	.	.
[4D#	8A#	8g#]	.
.	8B	16f#	.
.	.	16g#	.
16D#]	[4c#	[4a#	.
16DD#	.	.	.
16EE#	.	.	.
16FF##	.	.	.
=20	=20	=20	=20
[4GG#	8c#]	8a#]	1r
.	8B	16g#	.
.	.	16f##	.
8GG#]	[4en	8g#	.
16FF##	.	16a#	.
16GG#	.	16b	.
[4AA#	8e]	[2cc#	.
.	16d#	.	.
.	16c#	.	.
8AA#]	8f#	.	.
16GG#	8e	.	.
16AA#	.	.	.
=21	=21	=21	=21
2BB	8d#	8cc#]	8r
.	8F##	16b	8dd#
.	.	16a#	.
.	8G#	16b	8dd#
.	.	16g#	.
.	8G##	16f#	8dd#
.	.	16e#	.
8AA#	4.A#	8.f#	8cc##
8BB#	.	.	8dd#
.	.	16f#	.
8C##	.	16e#	[4ee#
.	.	16f#	.
16BB	16G#	[8g#	.
16C#	16A#	.	.
=22	=22	=22	=22
8D#	4.Bn	8g#]	8ee#]
16C##	.	8f#	8dd#
16D#	.	.	.
[4E#	.	8r	[4gg#
.	16A#	8ff#	.
.	16B#	.	.
8E#]	4.c#	8ee#	8gg#]
16D#	.	8r	16ff#
16E#	.	.	16ee#
[4F#	.	8r	8aa#
.	16B#	8ee#	8gg#
.	16c##	.	.
=23	=23	=23	=23
8F#]	[4d#	8dd#	8ff#
16E#	.	[8cc#	8aa#
16F##	.	.	.
[4G#	16d#]	8cc#]	[4dd#
.	16en	.	.
.	16d#	16b	.
.	16c#	16a#	.
8G#]	4.B	16g#	4.dd#]
.	.	16d#	.
8F#	.	8g#	.
4En	.	8g#	.
.	16A#	8g#	8cc##
.	16G#	.	.
=24	=24	=24	=24
4D#	8A#	8f##	8dd#
.	8en	8g#	8r
4C#	8e	[4a#	4r
.	8e	.	.
4.BB	8d#	8a#]	2r
.	8e#	8g#	.
.	8f##	[4cc#	.
16AA#	8g#	.	.
16GG#	.	.	.
=25	=25	=25	=25
8FF##	8a#	8cc#]	1r
8D#	8g#	16b	.
.	.	16a#	.
8D#	4f##	8dd#	.
8D#	.	8cc#	.
8C##	8g#	8b	.
8D#	4f#	8a#	.
[4E#	.	[4g#	.
.	16e#	.	.
.	16d#	.	.
=26	=26	=26	=26
8E#]	8c##	8g#]	1r
8D#	4d#	8f#	.
[4G#	.	[4e#	.
.	16c#	.	.
.	16B#	.	.
8G#]	4c#	8e#]	.
16F#	.	16a#	.
16E#	.	16g#	.
8A#	[4c#	8f#	.
8G#	.	8en	.
=27	=27	=27	=27
8F##	8c#]	8d#	2r
8D#	16B	[8dd#	.
.	16A#	.	.
[4G#	8B	16dd#]	.
.	.	16b	.
.	8en	16a#	.
.	.	16g#	.
8G#]	8c#	4.a#	8r
16F##	8A#	.	8cc#
16E#	.	.	.
8F##	8d#	.	8cc#
[8F#	8en	8an	8cc#
=28	=28	=28	=28
8F#]	8d#	4g#	8b#
8En	4c#	.	8cc#
8F#	.	8an	[4dd#
8G#	8B#	16g#	.
.	.	16f#	.
4.An	4.c#	8en	8dd#]
.	.	16f#	8cc#
.	.	16g#	.
.	.	4a	[4ff#
16G#	8d#	.	.
16F#	.	.	.
=29	=29	=29	=29
8G#	8B#	4.g#	8ff#]
8A#	8c#	.	16een
.	.	.	16dd#
[4Bn	4dn	.	8gg#
.	.	16an	8ff#
.	.	16b	.
8B]	8c#	4.cc#	8ee#
16A#	16d#	.	8cc#
16G#	16e#	.	.
8A#	16f#	.	[4ff#
.	16g#	.	.
8B#	[8an	8dd#	.
=30	=30	=30	=30
4c#	8a]	8cc#	4ff#]
.	16g#	8b	.
.	16f#	.	.
4C#	4g#	8b	4ee#
.	.	8b	.
16F#	8f#	8a#	4.ff#
16E#	.	.	.
16F#	8r	8b	.
16G#	.	.	.
16A#	4r	[4cc#	.
16F#	.	.	.
16G#	.	.	8een
16A#	.	.	.
=31	=31	=31	=31
16B	1r	8cc#]	4.dd#
16c#	.	.	.
16d#	.	8b	.
16B	.	.	.
16c#	.	[4een	.
16B	.	.	.
16A#	.	.	16cc#
16G#	.	.	16b
16F#	.	8ee]	4a#
16G#	.	.	.
16F#	.	16dd#	.
16En	.	16cc#	.
16D#	.	8ff#	[4aa#
16C#	.	.	.
16BB	.	8ee	.
16AA#	.	.	.
=32	=32	=32	=32
8BB	8r	4dd#	8aa#]
16B	8d#	.	16gg#
16A#	.	.	16ff##
8B	8d#	8r	[4gg#
16c#	8d#	8g#	.
16B	.	.	.
4A#	8c#	8a#	4.gg#]
.	8d#	8b	.
4An	[4en	[4cc#	.
.	.	.	8ff#
=33	=33	=33	=33
[4G#	8e]	8cc#]	4.gg#
.	8d#	16b	.
.	.	16a#	.
16G#]	[4g#	[4b	.
16F#	.	.	.
*strophe	*	*	*
*^	*	*	*
*S/sic	*S/ossia	*	*	*
16Enxx	16E#xx	.	.	8ff#
*S/fin	*S/fin	*	*	*
*v	*v	*	*	*
*S-	*	*	*
16D#	.	.	.
4.C##	8g#]	8b]	[2ee#
.	16f#	16a#	.
.	16e#	16g#	.
.	8a#	[4a#	.
16BB#	8g#	.	.
16AA#	.	.	.
=34	=34	=34	=34
8D#	8.f#	8.a#]	8ee#]
8DD#	.	.	16dd#
.	16e#	16g#	16cc#
8D#	8d#	8f#	8b
8E#	8c#	8e#	8a#
8F#	4B#	16d#	4g##
.	.	16e#	.
16E#	.	8f#	.
16D#	.	.	.
16C#	4c#	8e#	[4a#
16BB#	.	.	.
16AA#	.	16f#	.
16C#	.	16d##	.
=35	=35	=35	=35
2EE#	8B#	4.e#	4a#]
.	16c#	.	.
.	16A#	.	.
.	4B#	.	4g##
.	.	8d#	.
8AA#	8A#	8c#	4.a#
8r	8B#	8d#	.
4r	[4c#	8e#	.
.	.	8en	8g#
=36	=36	=36	=36
*	*	*strophe	*
*	*	*^	*
*	*	*S/sic	*S/ossia	*
1r	8c#]	8d#xx	4.d#xx	8f##
.	8F##	8enxx	.	8cc#
.	8G#	8d#xx	.	8b
*	*	*S/fin	*S/fin	*
*	*	*v	*v	*
*	*	*S-	*
.	8A#	8c#	[8a#
.	8D#	4B	8a#]
.	4G#	.	8g#
.	.	8A#	[4cc#
.	8F##	8a#	.
=37	=37	=37	=37
1r	4.B	8d#	8cc#]
.	.	16g#	16b
.	.	16f##	16a#
.	.	[4g#	8b
.	16A#	.	8een
.	16G#	.	.
.	8A#	8g#]	8cc##
.	4d#	8f#	8a#
.	.	8e#	[4gg#
.	8c##	8ee#	.
=38	=38	=38	=38
1r	[4f#	8a#	8gg#]
.	.	16dd#	16ff#
.	.	16cc##	16ee#
.	8f#]	[4dd#	8ff#
.	16e#	.	8bb
.	16d#	.	.
.	8e#	8dd#]	8gg##
.	4a#	16cc#	8ee#
.	.	16b#	.
.	.	[4cc#	16aa#
.	.	.	16gg#
.	8g#	.	16ff##
.	.	.	16ee#
=39	=39	=39	=39
1r	8f##	16cc#]	[4dd#
.	.	16cc#	.
.	8d#	16b	.
.	.	16a#	.
.	[4g#	4b	16dd#]
.	.	.	16ff#
.	.	.	16ee#
.	.	.	16dd#
.	8g#]	4a#	16cc##
.	.	.	16ee#
.	[8f#	.	16dd#
.	.	.	16cc#
.	16f#]	[4g#	16b#
.	16f#	.	16dd#
.	16e#	.	16cc#
.	16d#	.	16bn
=40	=40	=40	=40
2r	16c##	16g#]	[4a#
.	16e#	16g#	.
.	16d#	16f#	.
.	16c#	16e#	.
.	8B#	16d#	8a#]
.	.	16f#	.
.	8Bn	16e#	[8g#
.	.	16d#	.
8r	4A#	8c##	16g#]
.	.	.	16e#
8D#	.	8d#	16f#
.	.	.	16a#
8D#	8r	8r	16dd#
.	.	.	16a#
8D#	8B#	8g##	8ff#
=41	=41	=41	=41
8C##	8e#	8a#	8ee#
8D#	8r	8r	8r
[4E#	8r	8r	8r
.	8e#	8cc##	8bb
8E#]	8A#	8ff#	8aa#
8D#	8r	8r	8r
[4G#	8r	8r	8r
.	8d#	8b	8gg#
=42	=42	=42	=42
8G#]	8e#	8a#	8cc##
16F#	8r	8r	8r
16E#	.	.	.
8A#	8r	8r	8r
8G#	8c##	8e#	8ee#
8F#	8d#	8f#	8a#
16D#	16A#	16f#	16dd#
16E#	16G#	16e#	16cc#
8F#	8A#	8d#	8dd#
8G#	8B	[8e#	8g#
=43	=43	=43	=43
4A#	[4A#	8e#]	4f#
.	.	4d#	.
4AA#	8.A#]	.	4e#
.	.	8c##	.
.	16G#	.	.
2D#	8F#	8d#	8d#
.	8A#	16f#	8dd#
.	.	16e#	.
.	8A#	16f#	8dd#
.	.	16a#	.
.	8A#	16g#	8dd#
.	.	16f#	.
=44	=44	=44	=44
8D#	8B	16e#	8cc##
.	.	16g#	.
16D#	8A#	16f#	8dd#
16C##	.	16a#	.
16D#	[4G#	16b	[4ee#
16F#	.	16a#	.
16E#	.	[8b	.
16D#	.	.	.
8C##	8G#]	8b]	8ee#]
8F#	8A#	8a#	8dd#
16r	[4E#	16r	[4gg#
16BB	.	16dd#	.
16AA#	.	16cc##	.
16GG#	.	16b#	.
=45	=45	=45	=45
*	*	*^	*
!! Five-voice material to the end:
8.AA#	8E#]	8cc##	2r]	8gg#
.	16F#	16dd#	.	16ff#
16GG#	16G#	16ee#	.	16ee#
8FF#	8D#	8ff#	.	8aa#
8AA#	8E#	8cc##	.	8gg#
8D#	8F#	8dd#	4r	8ff#
8E#	8B	8g#	.	8cc##
8F#	8A#	16f#	8r	[4dd#
.	.	16e#	.	.
8GG##	16D#	[8f#	8bn	.
.	16E#	.	.	.
=46	=46	=46	=46	=46
2AA#	8F#	8f#]	2a#	4dd#]
.	16E#	16g#	.	.
.	16D#	16f#	.	.
.	8A#	16e#	.	4cc##
.	.	16f#	.	.
.	8e#	8g#	.	.
2DD#	2d#	2f##	2a#	2dd#
==	==	==	==	==
*-	*-	*-	*-	*-
!!!CDT: 1685/3/-1750/7/28
!!!OCY: Deutschland
!!!PPP: Leipzig
!!!ODT: 1738//-1742//
!!!PDT: 1739//-1742//
!!!AFR: fuga; fugue
!!!AST: polyphony
!!!AMT: simple quadruple
!!!SCA: Bach-Werke-Verzeichnis
!!!YOR: Bach Gesellschaft
!!!SMS: British Library, various
!!!AIN: cemba; clavi
!!!EEV: 1.0
!!!RDT: 1986 December 2
!!!YER: 1994 August 10
!!!EFL: 32/48
!!!VTS: 1982810613
